cssgg/git-commit.svg

<svg
  width="24"
  height="24"
  viewBox="0 0 24 24"
  fill="none"
  xmlns="http://www.w3.org/2000/svg"
>
  <path
    fill-rule="evenodd"
    clip-rule="evenodd"
    d="M11 4C11 3.44772 11.4477 3 12 3C12.5523 3 13 3.44772 13 4V9.17071C14.1652 9.58254 15 10.6938 15 12C15 13.3062 14.1652 14.4175 13 14.8293V20C13 20.5523 12.5523 21 12 21C11.4477 21 11 20.5523 11 20V14.8293C9.83481 14.4175 9 13.3062 9 12C9 10.6938 9.83481 9.58254 11 9.17071V4ZM12 13C12.5523 13 13 12.5523 13 12C13 11.4477 12.5523 11 12 11C11.4477 11 11 11.4477 11 12C11 12.5523 11.4477 13 12 13Z"
    fill="currentColor"
  />
</svg>

<svg viewBox="0 0 24 24" xmlns="http://www.w3.org/2000/svg"><path fill-rule="evenodd" d="M11 4c0-.56.44-1 1-1 .55 0 1 .44 1 1v5.17c1.16.41 2 1.52 2 2.82 0 1.3-.84 2.41-2 2.82v5.17c0 .55-.45 1-1 1 -.56 0-1-.45-1-1V14.8c-1.17-.42-2-1.53-2-2.83 0-1.31.83-2.42 2-2.83V3.96Zm1 9c.55 0 1-.45 1-1 0-.56-.45-1-1-1 -.56 0-1 .44-1 1 0 .55.44 1 1 1Z"/></svg>
